public/assets/images/icons/logo.svg

<?xml version="1.0" encoding="UTF-8" standalone="no"?><!DOCTYPE svg PUBLIC "-//W3C//DTD SVG 1.1//EN" "http://www.w3.org/Graphics/SVG/1.1/DTD/svg11.dtd"><svg width="100%" height="100%" viewBox="0 0 1200 1200" version="1.1" xmlns="http://www.w3.org/2000/svg" xmlns:xlink="http://www.w3.org/1999/xlink" xml:space="preserve" xmlns:serif="http://www.serif.com/" style="fill-rule:evenodd;clip-rule:evenodd;stroke-linejoin:round;stroke-miterlimit:1.41421;"><path d="M344.9,150.4c-0.2,0.2 -4.2,0.7 -8.9,1.1c-40,3.2 -85.7,19.6 -120.5,43.3c-45.1,30.6 -79.6,73.9 -98.3,123.3c-5.1,13.5 -10.4,31.2 -11.8,39.9c-0.2,1.4 -0.6,3.4 -0.9,4.6c-2.9,13.1 -4.2,31 -3.9,54.9c0.2,13.2 0.5,25.1 0.8,26.5c0.2,1.4 0.7,5.6 1.1,9.5c1.7,18.8 8.5,51.5 14.4,68.7c1.6,4.9 2.8,8.8 2.6,8.8c-0.2,0 0.8,2.6 2.1,5.7c1.4,3.2 3.3,7.8 4.1,10.3c3.1,9 13.7,30.8 22.8,46.6c4.9,8.5 17.2,27.7 19.7,30.9c0.4,0.5 4.5,5.9 9,12c7,9.4 14,18.2 24.8,30.9c18.3,21.5 61.6,64.6 87.4,86.9c1.2,1 3.7,3.3 5.6,5c1.9,1.8 9.4,8.4 16.5,14.7c7.2,6.3 13.5,11.9 14.1,12.5c0.6,0.5 3.7,3.2 6.9,6c5,4.2 12.8,11.1 36,31.4c1.7,1.4 6.4,5.6 10.5,9.2c4.1,3.6 8.8,7.7 10.3,9c1.6,1.3 4.1,3.5 5.6,4.9c6.8,6.4 28,25.5 32.5,29.3c11.5,10 65,62.5 80.6,79.2c28.5,30.6 59.2,67.5 82.1,99.2c11,15.1 9.1,14.9 18,1.8c3,-4.4 5.8,-8.5 6.2,-9c0.4,-0.6 2.6,-3.5 4.8,-6.5c6.6,-9.1 7.1,-9.8 14.3,-19.3c3.8,-5.1 7.2,-9.4 7.6,-9.7c0.3,-0.3 2.8,-3.4 5.5,-7c5.6,-7.4 7.5,-9.7 12.6,-15.4c1.9,-2.3 6.1,-7.3 9.3,-11.1c3.3,-3.9 9.1,-10.6 13.1,-15c4,-4.4 9.2,-10.2 11.6,-12.9c4.5,-4.9 14.4,-15.4 26.9,-28.1c16.7,-17.1 47.4,-46.6 64.5,-62.1c1.7,-1.5 5.7,-5.2 9.1,-8.3c6.6,-6.1 16.3,-14.9 32.4,-29.1c5.8,-5.1 13.9,-12.3 18,-16c4.1,-3.7 9.1,-8 11,-9.6c1.9,-1.6 3.7,-3.1 4,-3.5c0.3,-0.3 5,-4.5 10.5,-9.4c19.7,-17.3 23.9,-21 26.4,-23.5c1.5,-1.4 4.9,-4.5 7.6,-6.9c2.8,-2.5 9.2,-8.3 14.4,-13c39.3,-35.8 72.9,-70.7 94.6,-98.1c3.3,-4.1 6.3,-7.7 6.6,-8c3,-2.6 27.2,-38.2 31.9,-47c1.3,-2.5 3,-5.2 3.6,-6c1.7,-2.1 15.1,-29.2 18.6,-37.5c12.5,-29.8 22,-66.4 24.3,-94c0.4,-4.4 0.9,-8.4 1.2,-8.8c1.2,-2 1,-48.9 -0.3,-59.7c-4.7,-40.7 -18.8,-80 -40.8,-113.3c-19,-28.8 -45.5,-55.5 -73.8,-74.4c-13.7,-9.1 -21.5,-13.3 -45.3,-24.4c-7,-3.2 -32.5,-11.4 -39.4,-12.5c-1.4,-0.3 -3.9,-0.9 -5.6,-1.4c-1.6,-0.5 -4.8,-1.2 -7,-1.5c-2.2,-0.4 -6.7,-1.1 -10,-1.6c-18.1,-2.9 -63.7,-3.2 -68.4,-0.5c-0.3,0.2 -2.8,0.6 -5.6,1c-5.4,0.7 -8.1,1.3 -19.5,4.4c-20.4,5.7 -45.5,16.7 -59.8,26.3c-2.4,1.6 -4.5,2.9 -4.8,2.9c-1.1,0 -23.2,16.1 -30.5,22.2c-7.4,6.2 -30.7,29.1 -36.4,35.8c-18.5,21.8 -34.4,45 -45.3,66.3c-2.6,5.1 -5.1,9.8 -5.5,10.5c-0.6,0.8 -2.5,-1.9 -5.7,-8.1c-22.7,-44.2 -59.2,-87.7 -97,-115.4c-7.9,-5.7 -19,-13.3 -19.7,-13.3c-0.3,0 -1.7,-0.8 -3.1,-1.9c-12.5,-8.7 -44.7,-22.3 -63.2,-26.7c-9.9,-2.3 -9.8,-2.3 -20,-4c-8.1,-1.3 -46.1,-2.9 -47.1,-2Z" style="fill-rule:nonzero;"/></svg>

<?xml version="1.0" encoding="UTF-8" standalone="no"?>
<!DOCTYPE svg PUBLIC "-//W3C//DTD SVG 1.1//EN" "http://www.w3.org/Graphics/SVG/1.1/DTD/svg11.dtd">
<svg width="100%" height="100%" viewBox="0 0 999 917" version="1.1" xmlns="http://www.w3.org/2000/svg" xmlns:xlink="http://www.w3.org/1999/xlink" xml:space="preserve" xmlns:serif="http://www.serif.com/" style="fill-rule:evenodd;clip-rule:evenodd;stroke-linejoin:round;stroke-miterlimit:1.41421;">
    <g transform="matrix(1,0,0,1,-100.558,-150.138)">
        <path d="M344.9,150.4C344.7,150.6 340.7,151.1 336,151.5C296,154.7 250.3,171.1 215.5,194.8C170.4,225.4 135.9,268.7 117.2,318.1C112.1,331.6 106.8,349.3 105.4,358C105.2,359.4 104.8,361.4 104.5,362.6C101.6,375.7 100.3,393.6 100.6,417.5C100.8,430.7 101.1,442.6 101.4,444C101.6,445.4 102.1,449.6 102.5,453.5C104.2,472.3 111,505 116.9,522.2C118.5,527.1 119.7,531 119.5,531C119.3,531 120.3,533.6 121.6,536.7C123,539.9 124.9,544.5 125.7,547C128.8,556 139.4,577.8 148.5,593.6C153.4,602.1 165.7,621.3 168.2,624.5C168.6,625 172.7,630.4 177.2,636.5C184.2,645.9 191.2,654.7 202,667.4C220.3,688.9 263.6,732 289.4,754.3C290.6,755.3 293.1,757.6 295,759.3C296.9,761.1 304.4,767.7 311.5,774C318.7,780.3 325,785.9 325.6,786.5C326.2,787 329.3,789.7 332.5,792.5C337.5,796.7 345.3,803.6 368.5,823.9C370.2,825.3 374.9,829.5 379,833.1C383.1,836.7 387.8,840.8 389.3,842.1C390.9,843.4 393.4,845.6 394.9,847C401.7,853.4 422.9,872.5 427.4,876.3C438.9,886.3 492.4,938.8 508,955.5C536.5,986.1 567.2,1023 590.1,1054.7C601.1,1069.8 599.2,1069.6 608.1,1056.5C611.1,1052.1 613.9,1048 614.3,1047.5C614.7,1046.9 616.9,1044 619.1,1041C625.7,1031.9 626.2,1031.2 633.4,1021.7C637.2,1016.6 640.6,1012.3 641,1012C641.3,1011.7 643.8,1008.6 646.5,1005C652.1,997.6 654,995.3 659.1,989.6C661,987.3 665.2,982.3 668.4,978.5C671.7,974.6 677.5,967.9 681.5,963.5C685.5,959.1 690.7,953.3 693.1,950.6C697.6,945.7 707.5,935.2 720,922.5C736.7,905.4 767.4,875.9 784.5,860.4C786.2,858.9 790.2,855.2 793.6,852.1C800.2,846 809.9,837.2 826,823C831.8,817.9 839.9,810.7 844,807C848.1,803.3 853.1,799 855,797.4C856.9,795.8 858.7,794.3 859,793.9C859.3,793.6 864,789.4 869.5,784.5C889.2,767.2 893.4,763.5 895.9,761C897.4,759.6 900.8,756.5 903.5,754.1C906.3,751.6 912.7,745.8 917.9,741.1C957.2,705.3 990.8,670.4 1012.5,643C1015.8,638.9 1018.8,635.3 1019.1,635C1022.1,632.4 1046.3,596.8 1051,588C1052.3,585.5 1054,582.8 1054.6,582C1056.3,579.9 1069.7,552.8 1073.2,544.5C1085.7,514.7 1095.2,478.1 1097.5,450.5C1097.9,446.1 1098.4,442.1 1098.7,441.7C1099.9,439.7 1099.7,392.8 1098.4,382C1093.7,341.3 1079.6,302 1057.6,268.7C1038.6,239.9 1012.1,213.2 983.8,194.3C970.1,185.2 962.3,181 938.5,169.9C931.5,166.7 906,158.5 899.1,157.4C897.7,157.1 895.2,156.5 893.5,156C891.9,155.5 888.7,154.8 886.5,154.5C884.3,154.1 879.8,153.4 876.5,152.9C858.4,150 812.8,149.7 808.1,152.4C807.8,152.6 805.3,153 802.5,153.4C797.1,154.1 794.4,154.7 783,157.8C762.6,163.5 737.5,174.5 723.2,184.1C720.8,185.7 718.7,187 718.4,187C717.3,187 695.2,203.1 687.9,209.2C680.5,215.4 657.2,238.3 651.5,245C633,266.8 617.1,290 606.2,311.3C603.6,316.4 601.1,321.1 600.7,321.8C600.1,322.6 598.2,319.9 595,313.7C572.3,269.5 535.8,226 498,198.3C490.1,192.6 479,185 478.3,185C478,185 476.6,184.2 475.2,183.1C462.7,174.4 430.5,160.8 412,156.4C402.1,154.1 402.2,154.1 392,152.4C383.9,151.1 345.9,149.5 344.9,150.4Z" style="fill-rule:nonzero;"/>
    </g>
</svg>
